flaticon/interaction/archive-11.svg

<svg xmlns="http://www.w3.org/2000/svg" width="32" height="32" viewBox="0 0 24 24">
    <path d="M 21.398438 16.800781 L 21.398438 16.398438 C 21.398438 14.855469 20.144531 13.601562 18.601562 13.601562 C 17.054688 13.601562 15.800781 14.855469 15.800781 16.398438 L 15.800781 16.800781 L 14.199219 16.800781 L 14.199219 24 L 23 24 L 23 16.800781 Z M 16.601562 16.398438 C 16.601562 15.296875 17.496094 14.398438 18.601562 14.398438 C 19.703125 14.398438 20.601562 15.296875 20.601562 16.398438 L 20.601562 16.800781 L 16.601562 16.800781 Z M 22.199219 23.199219 L 15 23.199219 L 15 17.601562 L 22.199219 17.601562 Z M 22.199219 23.199219"/>
    <path d="M18.601562 18.800781C17.71875 18.800781 17 19.519531 17 20.398438 17 21.144531 17.511719 21.765625 18.199219 21.941406L18.199219 22.398438C18.199219 22.621094 18.378906 22.800781 18.601562 22.800781 18.820312 22.800781 19 22.621094 19 22.398438L19 21.941406C19.6875 21.765625 20.199219 21.144531 20.199219 20.398438 20.199219 19.519531 19.480469 18.800781 18.601562 18.800781zM18.601562 21.199219C18.160156 21.199219 17.800781 20.839844 17.800781 20.398438 17.800781 19.957031 18.160156 19.601562 18.601562 19.601562 19.042969 19.601562 19.398438 19.957031 19.398438 20.398438 19.398438 20.839844 19.042969 21.199219 18.601562 21.199219zM9.601562 7.199219L13.996094 7.199219C14.769531 7.199219 15.398438 6.570312 15.398438 5.796875L15.398438 5.199219C15.398438 4.980469 15.222656 4.800781 15 4.800781 14.777344 4.800781 14.601562 4.980469 14.601562 5.199219L14.601562 5.796875C14.601562 6.128906 14.328125 6.398438 13.996094 6.398438L9.601562 6.398438C9.269531 6.398438 9 6.128906 9 5.796875L9 5.199219C9 4.980469 8.820312 4.800781 8.601562 4.800781 8.378906 4.800781 8.199219 4.980469 8.199219 5.199219L8.199219 5.796875C8.199219 6.570312 8.828125 7.199219 9.601562 7.199219zM12.601562 18L9.601562 18C9.269531 18 9 17.730469 9 17.398438L9 16.800781C9 16.578125 8.820312 16.398438 8.601562 16.398438 8.378906 16.398438 8.199219 16.578125 8.199219 16.800781L8.199219 17.398438C8.199219 18.171875 8.828125 18.800781 9.601562 18.800781L12.601562 18.800781C12.820312 18.800781 13 18.621094 13 18.398438 13 18.179688 12.820312 18 12.601562 18zM12.601562 18"/>
    <path d="M 12.199219 23.199219 L 2.132812 23.199219 C 1.949219 23.199219 1.800781 23.050781 1.800781 22.867188 L 1.800781 12.398438 L 21.800781 12.398438 L 21.800781 14.398438 C 21.800781 14.621094 21.980469 14.800781 22.199219 14.800781 C 22.421875 14.800781 22.601562 14.621094 22.601562 14.398438 L 22.601562 1.132812 C 22.601562 0.507812 22.089844 0 21.46875 0 L 2.132812 0 C 1.507812 0 1 0.507812 1 1.132812 L 1 22.867188 C 1 23.492188 1.507812 24 2.132812 24 L 12.199219 24 C 12.421875 24 12.601562 23.820312 12.601562 23.601562 C 12.601562 23.378906 12.421875 23.199219 12.199219 23.199219 Z M 2.132812 0.800781 L 21.46875 0.800781 C 21.652344 0.800781 21.800781 0.949219 21.800781 1.132812 L 21.800781 11.601562 L 1.800781 11.601562 L 1.800781 1.132812 C 1.800781 0.949219 1.949219 0.800781 2.132812 0.800781 Z M 2.132812 0.800781"/>
</svg>

<svg xmlns="http://www.w3.org/2000/svg" width="32" height="32" viewBox="0 0 24 24">
    <path d="M21.398 16.8v-.402a2.8 2.8 0 0 0-5.597 0v.403h-1.602V24H23v-7.2zm-4.796-.402c0-1.101.894-2 2-2 1.101 0 2 .899 2 2v.403h-4zm5.597 6.801H15v-5.597h7.2zm0 0"/>
    <path d="M18.602 18.8c-.883 0-1.602.72-1.602 1.598 0 .747.512 1.368 1.2 1.543v.457a.401.401 0 0 0 .8 0v-.457a1.593 1.593 0 0 0 1.2-1.543c0-.878-.72-1.597-1.598-1.597zm0 2.4a.799.799 0 1 1 0 0zm0 0M9.602 7.2h4.394c.774 0 1.402-.63 1.402-1.403v-.598a.398.398 0 1 0-.796 0v.598a.605.605 0 0 1-.606.601H9.602A.602.602 0 0 1 9 5.797v-.598a.4.4 0 0 0-.8 0v.598c0 .773.628 1.402 1.402 1.402zm0 0M12.602 18h-3A.602.602 0 0 1 9 17.398v-.597a.401.401 0 1 0-.8 0v.597c0 .774.628 1.403 1.402 1.403h3a.401.401 0 0 0 0-.801zm0 0"/>
    <path d="M12.2 23.2H2.132a.332.332 0 0 1-.332-.333V12.398h20v2a.401.401 0 1 0 .8 0V1.133C22.602.508 22.09 0 21.47 0H2.133C1.508 0 1 .508 1 1.133v21.734C1 23.492 1.508 24 2.133 24h10.066a.401.401 0 1 0 0-.8zM2.132.8h19.336c.183 0 .332.15.332.333v10.469h-20V1.132c0-.183.148-.331.332-.331zm0 0"/>
</svg>
